X:23
T:A Kiss for Nothing
R:slip jig
C:traditional
B:Bremner's Collections, 1757
N:melodic code  633 632
Z:Paul Stewart Cranford (P.S.C.), <http://www.cranfordpub.com>
M:9/8
Q:333
K:Flyd
% actually F major (Hexatonic - missing fourth- no Bb's)
F2 c A2 c d2 f|F2 c cAF GEC|FAc cAc d2 f|agf cAF G2 A:|
|:(f/g/a)g fcf Acf|fcf Aca g2 (f/e/)|fce fga cde|fac dfF G2 A :|
